optimized/line/trophy.svg

<svg xmlns="http://www.w3.org/2000/svg" fill="currentColor" viewBox="0 0 24 24" aria-hidden="true">
  <path d="M13.005 16.94v2.063h5v2h-12v-2h5V16.94a8.001 8.001 0 01-7-7.938v-6h16v6a8.001 8.001 0 01-7 7.938zm-7-11.937v4a6 6 0 1012 0v-4h-12zm-5 0h2v4h-2v-4zm20 0h2v4h-2v-4z"/>
</svg>

<svg xmlns="http://www.w3.org/2000/svg" viewBox="0 0 24 24" aria-hidden="true">
  <path fill="none" d="M0 0h24v24H0z"/>
  <path d="M13 16.938V19h5v2H6v-2h5v-2.062A8.001 8.001 0 014 9V3h16v6a8.001 8.001 0 01-7 7.938zM6 5v4a6 6 0 1012 0V5H6zM1 5h2v4H1V5zm20 0h2v4h-2V5z"/>
</svg>
